X: 755
T: Xiu qilu
L: 1/8
M: 2/4
K: Bb
b2f2 [I:setbarnb 1]| 
e2d c | 
f g f c | 
B4 | 
c2f f | 
e2d c | 
f g f c | 
B4 | 
c d c B | 
A4 | 
c d c B | 
A4 | 
F2B2 | 
A2G F | 
c d c G | 
F4 | 
f g f c | 
f g f c | 
f g f c | 
B2A G | 
F2B B | 
A2G F | 
c d c G | 
F4 |]

@@@ Tune index: 9629
